src/images/dist/icons/tech-icon-3.svg

<svg width="38" height="31" viewBox="0 0 38 31" fill="none" xmlns="http://www.w3.org/2000/svg">
<path d="M30.2671 11.3582L36.9057 14.8511C37.1599 14.9848 37.3086 15.2593 37.2823 15.5461C37.2562 15.8331 37.0599 16.0757 36.7858 16.1607L30.2671 18.1829M30.2671 11.3582L36.7858 9.33607C37.0602 9.25104 37.2562 9.00846 37.2825 8.72141C37.3086 8.43464 37.1599 8.1601 36.9057 8.02644L23.7054 1.08144C23.5395 0.994187 23.3463 0.976125 23.1672 1.0317L1.49561 7.75384C1.22151 7.83915 1.02522 8.08173 0.999192 8.3685C0.97289 8.65555 1.12157 8.92982 1.37573 9.06375L5.93374 11.4618C6.65332 11.8403 7.38701 12.1807 8.13343 12.4833M30.2671 11.3582L28.3462 11.954L27.2498 12.2941M8.13343 12.4833L1.49229 14.5796C1.21902 14.6658 1.02439 14.9086 0.998916 15.1948C0.973444 15.4813 1.12212 15.7548 1.37573 15.8882L8.01438 19.3811M8.13343 12.4833C8.4311 12.7337 10.2456 13.2669 10.376 13.2669C10.7149 13.3667 11.056 13.4587 11.399 13.5437M8.01438 19.3811L1.49561 21.4032C1.22151 21.4882 1.02522 21.7308 0.999192 22.0179C0.97289 22.3046 1.12157 22.5792 1.37573 22.7128L14.5761 29.6578C14.6785 29.7117 14.7917 29.7392 14.9053 29.7392C14.9756 29.7392 15.0462 29.7287 15.1146 29.7076L28.6214 25.518L36.7858 22.9854C37.0599 22.9004 37.2562 22.6575 37.2823 22.3708C37.3086 22.084 37.1599 21.8094 36.9057 21.6758L30.2671 18.1829M8.01438 19.3811L14.5761 22.8331C14.6785 22.8873 14.7917 22.9146 14.9053 22.9146C14.9756 22.9146 15.0462 22.904 15.1146 22.8829L30.2671 18.1829M25.3456 12.8848L20.9666 11.7961C19.1393 11.2593 17.6293 10.0408 16.7146 8.36489C16.6002 8.15482 16.3881 8.01699 16.1506 7.99754C15.9114 7.97781 15.6816 8.07979 15.5346 8.26847C14.2286 9.94546 12.2656 10.8169 10.1393 11.1014L5.88664 11.4371M11.399 13.5437C11.3185 13.6615 11.2734 13.803 11.2734 13.9469C11.2734 14.1339 11.3492 14.3176 11.481 14.4499C11.6128 14.5821 11.7958 14.6583 11.9821 14.6583C12.1693 14.6583 12.3515 14.5821 12.4832 14.4499C12.615 14.3176 12.6909 14.1339 12.6909 13.9469C12.6909 13.9058 12.6865 13.8649 12.6795 13.8246M11.399 13.5437L12.6795 13.8246M12.6795 13.8246C13.4498 13.9716 14.2292 14.0817 15.0171 14.1542C15.7671 14.2234 16.5158 14.2578 17.2622 14.2578C18.7263 14.2578 20.1817 14.1242 21.6198 13.8596M21.6198 13.8596C21.6162 13.8885 21.6137 13.9177 21.6137 13.9469C21.6137 14.1339 21.6895 14.3176 21.8213 14.4499C21.9539 14.5821 22.1361 14.6583 22.3225 14.6583C22.5088 14.6583 22.6918 14.5821 22.8236 14.4499C22.9559 14.3176 23.0318 14.1339 23.0318 13.9469C23.0318 13.818 22.9952 13.6913 22.9293 13.5812M21.6198 13.8596L22.9293 13.5812M22.9293 13.5812C23.4346 13.4592 23.9374 13.3214 24.4371 13.1666L25.9181 12.7073M25.9181 12.7073C25.9513 12.7723 25.9942 12.8326 26.0463 12.8848C26.1781 13.0171 26.3611 13.0933 26.5474 13.0933C26.7337 13.0933 26.9167 13.0171 27.0485 12.8848C27.1803 12.7526 27.2562 12.5689 27.2562 12.3819C27.2562 12.3524 27.2537 12.3233 27.2498 12.2941M25.9181 12.7073L27.2498 12.2941" stroke="#211E1E" stroke-width="0.999998"/>
<path d="M15.1975 18.8445L15.1979 18.8442C15.2329 18.8059 15.2742 18.7922 15.3026 18.7922C15.3317 18.7922 15.3724 18.8058 15.4076 18.8442L15.4076 18.8442L15.4086 18.8453C15.4437 18.8834 15.4724 18.9488 15.4724 19.0229C15.4724 19.0969 15.4437 19.1624 15.4086 19.2005L15.4086 19.2005L15.4076 19.2016C15.3726 19.2398 15.3313 19.2536 15.3026 19.2536C15.2742 19.2536 15.2329 19.2399 15.1979 19.2016L15.1975 19.2012C15.1614 19.1619 15.1328 19.0956 15.1328 19.0229C15.1328 18.9502 15.1614 18.8839 15.1975 18.8445Z" stroke="#211E1E" stroke-width="0.999998"/>
<path d="M11.0459 16.7717L11.0459 16.7717C11.0767 16.7408 11.1225 16.7219 11.1659 16.7219C11.2092 16.7219 11.255 16.7408 11.2859 16.7717L11.6272 16.4303L11.2859 16.7717C11.3167 16.8025 11.3356 16.8483 11.3356 16.8917C11.3356 16.935 11.3167 16.9808 11.2859 17.0117C11.255 17.0425 11.2092 17.0615 11.1659 17.0615C11.1225 17.0615 11.0767 17.0425 11.0459 17.0117L10.7159 17.3417L11.0459 17.0117C11.015 16.9808 10.9961 16.935 10.9961 16.8917C10.9961 16.8483 11.015 16.8025 11.0459 16.7717Z" stroke="#211E1E" stroke-width="0.999998"/>
<path d="M20.423 16.7867L20.423 16.7867C20.4625 16.7505 20.529 16.7219 20.6018 16.7219C20.6745 16.7219 20.741 16.7505 20.7805 16.7867L20.7805 16.7867C20.8185 16.8216 20.8324 16.8631 20.8324 16.8917C20.8324 16.9203 20.8185 16.9618 20.7805 16.9967C20.741 17.0329 20.6745 17.0615 20.6018 17.0615C20.529 17.0615 20.4625 17.0329 20.423 16.9967L20.0923 17.3574L20.423 16.9967C20.385 16.9618 20.3711 16.9203 20.3711 16.8917C20.3711 16.8631 20.385 16.8216 20.423 16.7867Z" stroke="#211E1E" stroke-width="0.999998"/>
<path d="M25.7981 14.5976L25.7981 14.5976C25.8403 14.5555 25.9018 14.53 25.9611 14.53C26.0205 14.53 26.082 14.5555 26.1242 14.5976L26.4493 14.2725L26.1242 14.5976C26.1663 14.6398 26.1918 14.7013 26.1918 14.7607C26.1918 14.82 26.1663 14.8816 26.1242 14.9237L26.1242 14.9237C26.082 14.9659 26.0205 14.9913 25.9611 14.9913C25.9018 14.9913 25.8403 14.9659 25.7981 14.9237L25.473 15.2488L25.7981 14.9237C25.7559 14.8816 25.7305 14.82 25.7305 14.7607C25.7305 14.7013 25.7559 14.6398 25.7981 14.5976Z" stroke="#211E1E" stroke-width="0.999998"/>
<path d="M16.7835 16.0434C16.8184 16.0053 16.8599 15.9915 16.8885 15.9915C16.9171 15.9915 16.9586 16.0053 16.9935 16.0434C17.0298 16.0829 17.0583 16.1492 17.0583 16.2221C17.0583 16.2945 17.0299 16.3611 16.9931 16.4012L17.3621 16.7387L16.9935 16.4009C16.9586 16.4389 16.9171 16.4528 16.8885 16.4528C16.86 16.4528 16.8186 16.439 16.7837 16.401C16.7471 16.3609 16.7187 16.2944 16.7187 16.2221C16.7187 16.1492 16.7473 16.0829 16.7835 16.0434L16.4266 15.7162L16.7835 16.0434Z" stroke="#211E1E" stroke-width="0.999998"/>
</svg>

<svg width="38" height="31" fill="none" xmlns="http://www.w3.org/2000/svg"><path d="M30.267 11.358l6.639 3.493a.712.712 0 01-.12 1.31l-6.519 2.022m0-6.825l6.519-2.022a.71.71 0 00.12-1.31l-13.2-6.945a.706.706 0 00-.539-.05L1.496 7.755a.711.711 0 00-.12 1.31l4.558 2.398c.72.378 1.453.719 2.2 1.021m22.133-1.125l-1.92.596-1.097.34m-19.117.19l-6.64 2.096a.71.71 0 00-.117 1.308l6.638 3.493m.12-6.898c.297.25 2.112.784 2.242.784.339.1.68.192 1.023.277M8.014 19.38l-6.518 2.022a.71.71 0 00-.12 1.31l13.2 6.945a.707.707 0 00.539.05l13.506-4.19 8.165-2.533a.71.71 0 00.12-1.31l-6.639-3.492M8.014 19.38l6.562 3.452a.704.704 0 00.539.05l15.152-4.7m-4.921-5.298l-4.38-1.089a7.091 7.091 0 01-4.251-3.431.708.708 0 00-1.18-.097c-1.306 1.677-3.27 2.549-5.396 2.833l-4.252.336m5.512 2.107a.718.718 0 00-.126.403.713.713 0 00.709.711.712.712 0 00.698-.833m-1.281-.281l1.28.28m0 0a24.384 24.384 0 008.94.036m0 0a.707.707 0 00.202.59.715.715 0 00.502.208.713.713 0 00.709-.711.714.714 0 00-.103-.366m-1.31.279l1.31-.279m0 0c.506-.122 1.008-.26 1.508-.414l1.481-.46m0 0a.705.705 0 001.13.178.718.718 0 00.202-.59m-1.332.412l1.332-.413" stroke="#211E1E"/><path d="M15.197 18.845h0a.148.148 0 01.106-.053c.029 0 .07.014.105.052h0v.001a.27.27 0 01.064.178.27.27 0 01-.063.178h0-.001a.149.149 0 01-.105.053.148.148 0 01-.105-.052h0a.272.272 0 01-.065-.18c0-.072.028-.138.065-.177zm-4.151-2.073h0c.03-.031.077-.05.12-.05s.089.019.12.05l.341-.342-.341.342c.03.03.05.076.05.12a.18.18 0 01-.05.12.176.176 0 01-.12.05.175.175 0 01-.12-.05l-.33.33.33-.33a.175.175 0 01-.05-.12c0-.044.019-.09.05-.12zm9.377.015h0a.273.273 0 01.179-.065c.072 0 .139.028.178.065h0a.15.15 0 01.052.105.15.15 0 01-.052.105.273.273 0 01-.178.064.273.273 0 01-.179-.064l-.33.36.33-.36a.15.15 0 01-.052-.105.15.15 0 01.052-.105zm5.375-2.189h0a.237.237 0 01.163-.068c.06 0 .121.026.163.068l.325-.325-.325.325a.237.237 0 01.068.163.24.24 0 01-.068.163h0a.237.237 0 01-.163.067.237.237 0 01-.163-.067l-.325.325.325-.325a.236.236 0 01-.067-.163c0-.06.025-.121.067-.163zm-9.014 1.445a.149.149 0 01.105-.051c.028 0 .07.013.105.051.036.04.064.106.064.18a.273.273 0 01-.065.178l.37.338-.37-.338a.15.15 0 01-.104.052.149.149 0 01-.105-.052.273.273 0 01-.065-.179c0-.073.028-.14.064-.179l-.356-.327.357.327z" stroke="#211E1E"/></svg>
